local/share/icons/dracula-icons-main/symbolic/places/user-trash-symbolic.svg

<?xml version="1.0" encoding="UTF-8"?>
<svg xmlns="http://www.w3.org/2000/svg" xmlns:xlink="http://www.w3.org/1999/xlink" width="16" height="16" viewBox="0 0 16 16">
<path fill-rule="nonzero" fill="rgb(33.333333%, 33.333333%, 33.333333%)" fill-opacity="1" d="M 6 0.992188 C 5 0.992188 5 1.992188 5 1.992188 L 2 1.992188 C 2 1.992188 1 1.996094 1 2.996094 L 1 4 L 14 3.996094 L 14 2.996094 C 14 1.996094 13 1.992188 13 1.992188 L 10 1.992188 C 10 1.992188 10 0.992188 9 0.992188 Z M 2 5 L 2 14 C 2 14.523438 2.476562 15 3 15 L 12 15 C 12.523438 15 13 14.523438 13 14 L 13 5 L 11 5 L 11 13 L 4 13 L 4 5 Z M 2 5 "/>
</svg>

<svg width="16" height="16" version="1.1" viewBox="0 0 16 16" xmlns="http://www.w3.org/2000/svg">
 <defs>
  <style id="current-color-scheme" type="text/css">.ColorScheme-Text { color:#555555; } .ColorScheme-Highlight { color:#5294e2; }</style>
 </defs>
 <path style="fill:currentColor" class="ColorScheme-Text" d="m6 0.99414c-1 0-1 1-1 1h-3s-1 0.0015531-1 1.002v0.0039062 1l13-0.0039062v-1c0-1-1-1.002-1-1.002h-3s0-1-1-1h-3zm-4 4.0059v9c5e-5 0.52358 0.47642 0.99995 1 1h9c0.52358-5e-5 0.99995-0.47642 1-1v-9h-2v8h-7v-8h-2z"/>
</svg>
